X:31
T:Groves
Z: id:dc-hornpipe-64
M:C|
L:1/8
K:G Major
D|G2GF GABc|dBGB AGFE|F2FE FGAB|cdfe dcAF|!
G2GF GABc|dBGB AGFA|dfeg fdcA|A2G2 G3:|!
A|B2BA Bcde|fdcA AFF2|DFF2 AFF2|ABcA BGG2|!
B2BA Bcde|fdcA dBcA|dfeg fdcA|A2G2 G3:|!
B|dggf g2fg|abag f3e|d^cde fefg|abag f3e|!
dggf g2fg|abag f3e|dfeg fdcA|A2G2 G3:|!
D|GdBd GdBd|FcAc FcAc|GdBd GdBc|d^cde fd=cA|!
GdBd GdBd|FcAc FcAc|dfeg fdcA|A2G2 G3:|!
d|gdBd gdBd|fcAc fcAc|gdBd gdBc|d^cde fd=cA|!
dedB cdcA|BcBG ABA^c|dfeg fdcA|A2G2 G3:|!

